X:0099
M:6/8
L:1/8
Q:3/8=84
K:G
g|(f/g/af) g2e|aAA A2g|(f/g/af) g2e|dBG G2
g|(f/g/af) g2e|eae c2A| BcB     g2e|dBG G2:|

